!!!Genre:	Freylekhs
!!!Mode:	Freygish
!!!Listening/dance:	dance
!!!:	*c
!!!One_Mode:	no
**kern
*part1
*staff1
*clefG2
*k[b-e-a-]
*G:frey
*M2/4
*>A
=1-
16gLL
16a-JJ
4bn
8b
=2
(>16bnLL
16ddJJ)
4cc
8cc
=3
(<8qcc/
8.bnL)
16a-Jk
16gLL
16f
16g
16a-JJ
=4
8.bnL
16gJk
16ddLL
16cc
16b
16a-JJ
=5
16gLL
16a-JJ
4bn
8b
=6
(>16bnLL
16ddJJ
4cc)
8cc
=7
16ffLL
16ee-
16dd
16ccJJ
16bnLL
16cc
16b
16a-JJ
=8
4g
(>8qff#X/
8gg)
8r
=9:|!
4g
4r
*>bM
*G:frey
=19||
*>D
8bnL
8cc
8dd
8ccJ
=20
16ddLL
16ee-
16ff
16ee-JJ
8ddL
8ccJ
=21
8bnL
8cc
8dd
8ccJ
=22
16bnLL
16cc
16b
16a-JJ
4g
=23
8bnL
8ccJ
24ddLL
24ee-
24ddJ
8ccJ
=24
16ffLL
16gg
16aa-
16ggJJ
16ffLL
16ee-
16dd
16ccJJ
=25
8bnL
8ccJ
24ddLL
24ee-
24ddJ
8ccJ
=26
24bnLL
24cc
24bJ
8a-J
4g
==
*-
